X: 2742
T: Banks Of The Deveron, The
R: jig
M: 6/8
K: Cmajor
AGE GED|C3GEG|AGE GED|Ccd e2d|
cBA AGE|GED C2D|EAG Eed|1 c2B A2B:|2 c2B Acd||
|:edc gec|dcd edc|edc gec|deg gag|
edc gec|dcd edc|EAG Eed|1 c2B Acd:|2 c2BA2B||

